X: 1
T:The Countess of Louden's -- Reel
M:C|
L:1/8
R:reel
B:Ryan's Mammoth Collection
Z:Contributed by Ray Davies,  ray:davies99.freeserve.co.uk
K:D
uf|\
d2 (dA) FD AF | .Ee-e.d TcABc | d2 (dA) FD A(g | f)dec dDDf |
d2 (dA) FD AF | .Ee-e.d TcABc | d2 (dA) FD A(g | f)dec dDD |]
v(g|\
f)dad fada | gebe gbe(g | f)dad fada | fdec dDD(g |
f)dad fada | gebe gbeg  |  fdec dBAG | FA dg fdd  |]
